korla/apps/scalable/preferences-desktop-launch-feedback.svg

<!DOCTYPE svg  PUBLIC '-//W3C//DTD SVG 1.1//EN'  'http://www.w3.org/Graphics/SVG/1.1/DTD/svg11.dtd'>
<svg style="clip-rule:evenodd;fill-rule:evenodd;stroke-linejoin:round;stroke-miterlimit:1.41421" version="1.1" viewBox="0 0 48 48" xmlns="http://www.w3.org/2000/svg">
 <rect x="2" y="7.899" width="44" height="33.201" style="fill-opacity:.666667"/>
 <rect x="2" y="6.899" width="44" height="33.201" style="fill:url(#_Linear1)"/>
 <g transform="matrix(.163298 0 0 .163298 13.7124 13.3856)">
  <path d="m29.107 92.374c-3.26 0-6.03 1.14-8.311 3.422s-3.422 5.052-3.422 8.312 1.14 6.029 3.422 8.312c2.282 2.281 5.052 3.422 8.311 3.422 3.205 0 5.961-1.141 8.27-3.422 2.308-2.28 3.462-5.052 3.462-8.312s-1.154-6.028-3.462-8.312c-2.309-2.28-5.065-3.422-8.27-3.422z" style="fill-rule:nonzero;fill:rgb(233,235,237)"/>
  <path d="m26.5 67.607c0-3.585-1.276-6.653-3.829-9.208-2.553-2.553-5.622-3.829-9.207-3.829s-6.654 1.276-9.207 3.829-3.829 5.622-3.829 9.208c0 3.584 1.276 6.651 3.829 9.205s5.622 3.83 9.207 3.83 6.654-1.276 9.207-3.83c2.553-2.552 3.829-5.621 3.829-9.205z" style="fill-rule:nonzero;fill:rgb(233,235,237)"/>
  <path d="m102.107 37.626c1.791 0 3.328-0.639 4.603-1.915 1.276-1.277 1.915-2.812 1.915-4.604 0-1.793-0.639-3.327-1.915-4.603-1.276-1.277-2.812-1.915-4.603-1.915-1.793 0-3.328 0.639-4.604 1.915s-1.915 2.81-1.915 4.603 0.639 3.327 1.915 4.604 2.811 1.915 4.604 1.915z" style="fill-rule:nonzero;fill:rgb(233,235,237)"/>
  <path d="m29.108 16.768c-3.966 0-7.347 1.399-10.144 4.196-2.798 2.797-4.196 6.178-4.196 10.143 0 3.966 1.398 7.346 4.196 10.144s6.179 4.196 10.144 4.196 7.346-1.399 10.143-4.196c2.797-2.798 4.196-6.179 4.196-10.144s-1.399-7.346-4.196-10.143-6.178-4.196-10.143-4.196z" style="fill-rule:nonzero;fill:rgb(233,235,237)"/>
  <path d="m123.29 62.066c-1.521-1.521-3.367-2.281-5.54-2.281s-4.02 0.76-5.54 2.281-2.28 3.368-2.28 5.542c0 2.172 0.76 4.021 2.28 5.539 1.521 1.521 3.367 2.281 5.54 2.281s4.02-0.76 5.54-2.281c1.521-1.52 2.28-3.367 2.28-5.539 0-2.173-0.758-4.02-2.28-5.542z" style="fill-rule:nonzero;fill:rgb(233,235,237)"/>
  <path d="m102.107 94.982c-2.5 0-4.646 0.896-6.438 2.688s-2.688 3.938-2.688 6.438c0 2.498 0.896 4.645 2.688 6.437 1.793 1.793 3.938 2.688 6.438 2.688 2.498 0 4.644-0.896 6.437-2.688 1.792-1.792 2.688-3.938 2.688-6.437 0-2.5-0.896-4.645-2.688-6.438-1.793-1.792-3.939-2.688-6.437-2.688z" style="fill-rule:nonzero;fill:rgb(233,235,237)"/>
  <path d="m65.607 109.32c-2.879 0-5.337 1.02-7.375 3.057-2.036 2.037-3.055 4.494-3.055 7.373s1.018 5.336 3.055 7.373c2.038 2.037 4.495 3.057 7.375 3.057 2.879 0 5.336-1.02 7.373-3.057s3.056-4.494 3.056-7.373-1.019-5.336-3.056-7.373-4.494-3.057-7.373-3.057z" style="fill-rule:nonzero;fill:rgb(233,235,237)"/>
  <path d="m65.607-0.179c-4.345 0-8.04 1.52-11.082 4.562-3.041 3.042-4.562 6.736-4.562 11.081s1.52 8.038 4.562 11.08c3.042 3.041 6.736 4.562 11.082 4.562 4.347 0 8.039-1.52 11.08-4.562 3.041-3.041 4.562-6.735 4.562-11.08s-1.521-8.038-4.562-11.081c-3.041-3.041-6.733-4.562-11.08-4.562z" style="fill-rule:nonzero;fill:rgb(233,235,237)"/>
 </g>
 <defs>
  <linearGradient id="_Linear1" x2="1" gradientTransform="matrix(2.09279e-15,-34.1778,34.1778,2.09279e-15,25,41.077)" gradientUnits="userSpaceOnUse">
   <stop style="stop-color:rgb(86,96,105)" offset="0"/>
   <stop style="stop-color:rgb(108,120,132)" offset="1"/>
  </linearGradient>
 </defs>
</svg>

<?xml version="1.0" encoding="UTF-8" standalone="no"?>
<!DOCTYPE svg PUBLIC "-//W3C//DTD SVG 1.1//EN" "http://www.w3.org/Graphics/SVG/1.1/DTD/svg11.dtd">
<svg width="100%" height="100%" viewBox="0 0 48 48" version="1.1" xmlns="http://www.w3.org/2000/svg" xmlns:xlink="http://www.w3.org/1999/xlink" xml:space="preserve" xmlns:serif="http://www.serif.com/" style="fill-rule:evenodd;clip-rule:evenodd;stroke-linejoin:round;stroke-miterlimit:1.41421;">
    <rect id="rect7" x="2" y="7.899" width="44" height="33.201" style="fill-opacity:0.666667;"/>
    <rect id="rect9" x="2" y="6.899" width="44" height="33.201" style="fill:url(#_Linear1);"/>
    <g id="g27" transform="matrix(0.163298,0,0,0.163298,13.7124,13.3856)">
        <path id="path11" d="M29.107,92.374C25.847,92.374 23.077,93.514 20.796,95.796C18.515,98.078 17.374,100.848 17.374,104.108C17.374,107.368 18.514,110.137 20.796,112.42C23.078,114.701 25.848,115.842 29.107,115.842C32.312,115.842 35.068,114.701 37.377,112.42C39.685,110.14 40.839,107.368 40.839,104.108C40.839,100.848 39.685,98.08 37.377,95.796C35.068,93.516 32.312,92.374 29.107,92.374Z" style="fill:rgb(233,235,237);fill-rule:nonzero;"/>
        <path id="path13" d="M26.5,67.607C26.5,64.022 25.224,60.954 22.671,58.399C20.118,55.846 17.049,54.57 13.464,54.57C9.879,54.57 6.81,55.846 4.257,58.399C1.704,60.952 0.428,64.021 0.428,67.607C0.428,71.191 1.704,74.258 4.257,76.812C6.81,79.366 9.879,80.642 13.464,80.642C17.049,80.642 20.118,79.366 22.671,76.812C25.224,74.26 26.5,71.191 26.5,67.607Z" style="fill:rgb(233,235,237);fill-rule:nonzero;"/>
        <path id="path15" d="M102.107,37.626C103.898,37.626 105.435,36.987 106.71,35.711C107.986,34.434 108.625,32.899 108.625,31.107C108.625,29.314 107.986,27.78 106.71,26.504C105.434,25.227 103.898,24.589 102.107,24.589C100.314,24.589 98.779,25.228 97.503,26.504C96.227,27.78 95.588,29.314 95.588,31.107C95.588,32.9 96.227,34.434 97.503,35.711C98.779,36.988 100.314,37.626 102.107,37.626Z" style="fill:rgb(233,235,237);fill-rule:nonzero;"/>
        <path id="path17" d="M29.108,16.768C25.142,16.768 21.761,18.167 18.964,20.964C16.166,23.761 14.768,27.142 14.768,31.107C14.768,35.073 16.166,38.453 18.964,41.251C21.762,44.049 25.143,45.447 29.108,45.447C33.073,45.447 36.454,44.048 39.251,41.251C42.048,38.453 43.447,35.072 43.447,31.107C43.447,27.142 42.048,23.761 39.251,20.964C36.454,18.167 33.073,16.768 29.108,16.768Z" style="fill:rgb(233,235,237);fill-rule:nonzero;"/>
        <path id="path19" d="M123.29,62.066C121.769,60.545 119.923,59.785 117.75,59.785C115.577,59.785 113.73,60.545 112.21,62.066C110.69,63.587 109.93,65.434 109.93,67.608C109.93,69.78 110.69,71.629 112.21,73.147C113.731,74.668 115.577,75.428 117.75,75.428C119.923,75.428 121.77,74.668 123.29,73.147C124.811,71.627 125.57,69.78 125.57,67.608C125.57,65.435 124.812,63.588 123.29,62.066Z" style="fill:rgb(233,235,237);fill-rule:nonzero;"/>
        <path id="path21" d="M102.107,94.982C99.607,94.982 97.461,95.878 95.669,97.67C93.877,99.462 92.981,101.608 92.981,104.108C92.981,106.606 93.877,108.753 95.669,110.545C97.462,112.338 99.607,113.233 102.107,113.233C104.605,113.233 106.751,112.337 108.544,110.545C110.336,108.753 111.232,106.607 111.232,104.108C111.232,101.608 110.336,99.463 108.544,97.67C106.751,95.878 104.605,94.982 102.107,94.982Z" style="fill:rgb(233,235,237);fill-rule:nonzero;"/>
        <path id="path23" d="M65.607,109.32C62.728,109.32 60.27,110.34 58.232,112.377C56.196,114.414 55.177,116.871 55.177,119.75C55.177,122.629 56.195,125.086 58.232,127.123C60.27,129.16 62.727,130.18 65.607,130.18C68.486,130.18 70.943,129.16 72.98,127.123C75.017,125.086 76.036,122.629 76.036,119.75C76.036,116.871 75.017,114.414 72.98,112.377C70.943,110.34 68.486,109.32 65.607,109.32Z" style="fill:rgb(233,235,237);fill-rule:nonzero;"/>
        <path id="path25" d="M65.607,-0.179C61.262,-0.179 57.567,1.341 54.525,4.383C51.484,7.425 49.963,11.119 49.963,15.464C49.963,19.809 51.483,23.502 54.525,26.544C57.567,29.585 61.261,31.106 65.607,31.106C69.954,31.106 73.646,29.586 76.687,26.544C79.728,23.503 81.249,19.809 81.249,15.464C81.249,11.119 79.728,7.426 76.687,4.383C73.646,1.342 69.954,-0.179 65.607,-0.179Z" style="fill:rgb(233,235,237);fill-rule:nonzero;"/>
    </g>
    <defs>
        <linearGradient id="_Linear1" x1="0" y1="0" x2="1" y2="0" gradientUnits="userSpaceOnUse" gradientTransform="matrix(2.09279e-15,-34.1778,34.1778,2.09279e-15,25,41.077)"><stop offset="0" style="stop-color:rgb(86,96,105);stop-opacity:1"/><stop offset="1" style="stop-color:rgb(108,120,132);stop-opacity:1"/></linearGradient>
    </defs>
</svg>
